ti/pencil.svg

<svg version="1.2" baseProfile="tiny" xmlns="http://www.w3.org/2000/svg" viewBox="0 0 24 24" height="1em" width="1em">
  <path d="M21 6.879l-3.879-3.879c-.293-.293-.678-.439-1.061-.439-.384 0-.767.146-1.06.439l-10.939 10.939c-.293.293-.558.727-.75 1.188-.192.463-.311.959-.311 1.373v4.5h4.5c.414 0 .908-.119 1.371-.311.463-.192.896-.457 1.189-.75l10.94-10.939c.293-.293.439-.678.439-1.061 0-.384-.146-.767-.439-1.06zm-15.232 8.182l8.293-8.293 1.232 1.232-8.293 8.293-1.232-1.232zm1.732 3.939h-1.5l-1-1v-1.5c0-.077.033-.305.158-.605.01-.02 2.967 2.938 2.967 2.938-.322.134-.548.167-.625.167zm1.439-.768l-1.232-1.232 8.293-8.293 1.232 1.232-8.293 8.293zm9-9l-3.172-3.172 1.293-1.293 3.17 3.172-1.291 1.293z"/>
</svg>

<svg version="1.2" baseProfile="tiny" xmlns="http://www.w3.org/2000/svg" viewBox="0 0 24 24" height="1em" width="1em">
  <path d="M21 6.879 17.121 3A1.497 1.497 0 0 0 15 3L4.061 13.939c-.293.293-.558.727-.75 1.188C3.119 15.59 3 16.086 3 16.5V21h4.5c.414 0 .908-.119 1.371-.311.463-.192.896-.457 1.189-.75L21 9a1.497 1.497 0 0 0 0-2.121zM5.768 15.061l8.293-8.293L15.293 8 7 16.293l-1.232-1.232zM7.5 19H6l-1-1v-1.5c0-.077.033-.305.158-.605.01-.02 2.967 2.938 2.967 2.938-.322.134-.548.167-.625.167zm1.439-.768L7.707 17 16 8.707l1.232 1.232-8.293 8.293zm9-9L14.767 6.06l1.293-1.293 3.17 3.172-1.291 1.293z"/>
</svg>
